X:1
T:Love, Mighty and Wonderful
T:Love, Mighty and Wonderful
T:Carl Harold Lowden
T:Frank Ellsworth Graeff, 1909
T:Public Domain Courtesy of the Cyber Hymnal™
C:Carl Harold Lowden
Z:Public Domain
Z:Courtesy of the Cyber Hymnal™
%%score ( 1 2 ) ( 3 4 )
L:1/8
Q:1/4=90
M:3/4
K:Ab
V:1 treble 
V:2 treble 
V:3 bass 
V:4 bass 
V:1
 [CE][CE]>[DF] | [CE]3 [Ec] [Ec]>[DB] | [CA]4 [_GA]2 | [FA]3 [=EG] [FA][DF] | %4
w: 1.~Be- fore a|cross up- lift- ed|high, I|stood a- lone one|
w: 2.~In grief and|pain I wept a-|loud, In|help- less ag- o-|
w: 3.~That voice, so|sweet, en- tranced my|soul, It|gave me hope and|
w: 4.~And there up-|on that cru- el|cross My|Sav- ior died that|
 [CE]3 [CE] [DE]>[EB] | [EB]3 [EB] [EB]>[EA] | [EA]4 [CA]2 | [EG]3 [EA] [=DG][DF] | E6 || %9
w: day; My soul was|bur- dened with a|guilt No|tears could wash a-|way.|
w: ny; When from the|cross I heard One|speak, “I|gave My life for|thee.”|
w: cheer; Tho’ trem- bling,|I drew near the|cross, For|I had naught to|fear.|
w: day; I looked, be-|lieved, and from my|soul, The|bur- den rolled a-|way.|
[M:9/8]"^Refrain" c6 [Ac]>[EB][EA] | [EA]2 [EG] [EG]6 | [Ed]6 [Ed]>[Ec][EB] | [Ec]6 z3 | %13
w: ||||
w: Love, might- y and|won- der- ful,|Love, bound- less and|free,|
w: ||||
w: ||||
 e3- [Ae]2 [Ge] [Ae]>[Ac][EA] | [FB]2 [Fc] d6 |[M:3/4] [Ac]3 [EA] !fermata![Ac]!fermata![GB] | %16
w: |||
w: Love that suf- fered up- on|* the cross,|The love that died|
w: |||
w: |||
 [EA]3 |] %17
w: |
w: for|
w: |
w: |
V:2
 x3 | x6 | x6 | x6 | x6 | x6 | x6 | x6 | (E2 =D2 _D2) ||[M:9/8] (A3 A2 A) x3 | x9 | x9 | x9 | %13
 A2 G x6 | x3 F3 A3 |[M:3/4] x6 | x3 |] %17
V:3
 [A,,A,][A,,A,]>[A,,A,] | [A,,A,]3 [A,,A,] [E,G,]>[E,G,] | [A,,A,]4 [C,A,]2 | %3
w: ~ ~ ~|~ ~ ~ ~|~ ~|
 [D,A,]3 [D,B,] [D,A,][D,A,] | [A,,A,]3 [A,,A,] [B,,G,]>[D,G,] | [D,G,]3 [D,G,] [C,A,]>[C,A,] | %6
w: ~ ~ ~ ~|~ ~ ~ ~|~ ~ ~ ~|
 [C,A,]4 [F,A,]2 | [B,,B,]3 [B,,C] [B,,B,][B,,A,] | (G,2 [F,A,]2 !fermata![G,B,]2) || %9
w: ~ ~|~ ~ ~ ~|~ * *|
[M:9/8] [A,E]3 [A,E]2 [A,E] [A,E]>[A,D][A,D] | [E,C]2 [E,B,] B,6 | %11
w: Love, love so might- y and|won- der- ful!|
 [G,B,]2 [F,A,] [E,G,]2 [F,A,] [G,B,]>[E,G,][E,G,] | A,3 A,,3 x3 | %13
w: Love, the love so bound- less and|free! Love,|
 [A,C]2 [B,D] [CE]2 [B,D] [A,C]>[A,E][A,C] | [D,D]2 [C,=A,] B,6 | %15
w: the love that suf- fered up- on|the cross, *|
[M:3/4] [E,E]3 [E,C] !fermata![E,E]!fermata![E,D] | [A,C]3 |] %17
w: ||
V:4
 x3 | x6 | x6 | x6 | x6 | x6 | x6 | x6 | E,6 ||[M:9/8] x9 | x3 (E,3 F,3) | x9 | A,2 C, A,3 x3 | %13
 x9 | x3 B,,3 _F,3 |[M:3/4] x6 | x3 |] %17

